public/icons/uptrend.svg

<svg height="8" viewBox="0 0 12 8" width="12" xmlns="http://www.w3.org/2000/svg"><path d="m12.0001132 6c0-.3680016-.298-.66666827-.6666667-.66666827s-.6666667.29866667-.6666667.66666827v1.53133173l-2.82733329-3.29866666c-.21066667-.24666667-.56933334-.30533334-.84933334-.13733334l-2.84333333 1.706-2.96733333-3.56133333c-.236-.282-.65533334-.322-.94-.08533333-.282.23533333-.32066667.656-.08533334.93866666l3.33333334 4c.21133333.25266667.57466666.31466667.856.14466667l2.85-1.71 2.69066666 3.13866667h-1.884c-.36866666 0-.66666666.29866666-.66666666.66666666s.298.66666827.66666666.66666827h3.33333333c.0826667 0 .1646667-.0180016.2426667-.04933493.0326666-.01266667.058-.034.088-.05066667.0346666-.02066667.072-.03333333.1026666-.06066667.0066667-.00533333.0093334-.01333333.0153334-.01933333.0366666-.03333333.062-.074.09-.11466667.022-.032.048-.06.0633333-.09466666.0166667-.03533334.022-.07466667.0313333-.11266667.0126667-.04666667.0266667-.092.028-.14.0006667-.00866667.0053334-.016.0053334-.02466667z" fill="#0aea83" fill-rule="evenodd" transform="matrix(1 0 0 -1 0 9.999998)"/></svg>

<?xml version="1.0" encoding="UTF-8"?>
<svg width="12px" height="8px" viewBox="0 0 12 8" version="1.1" xmlns="http://www.w3.org/2000/svg" xmlns:xlink="http://www.w3.org/1999/xlink">
    <title>icon / uptrend</title>
    <g id="Page-1" stroke="none" stroke-width="1" fill="none" fill-rule="evenodd">
        <g id="MARKET-BASE-1-v0_1-(Not-login)-(Tablet)" transform="translate(-379.000000, -262.000000)" fill="#0AEA83">
            <g id="Group-57" transform="translate(32.000000, 205.000000)">
                <g id="Group-56" transform="translate(0.000000, 41.000000)">
                    <g id="Group" transform="translate(347.000000, 14.000000)">
                        <path d="M12.0001132,6 C12.0001132,5.6319984 11.7021132,5.33333173 11.3334465,5.33333173 C10.9647798,5.33333173 10.6667798,5.6319984 10.6667798,6 L10.6667798,7.53133173 L7.83944651,4.23266507 C7.62877984,3.9859984 7.27011317,3.92733173 6.99011317,4.09533173 L4.14677984,5.80133173 L1.17944651,2.2399984 C0.943446508,1.9579984 0.524113174,1.9179984 0.239446508,2.15466507 C-0.0425534922,2.3899984 -0.0812201589,2.81066507 0.154113174,3.09333173 L3.48744651,7.09333173 C3.69877984,7.3459984 4.06211317,7.4079984 4.34344651,7.2379984 L7.19344651,5.5279984 L9.88411317,8.66666507 L8.00011317,8.66666507 C7.63144651,8.66666507 7.33344651,8.96533173 7.33344651,9.33333173 C7.33344651,9.70133173 7.63144651,10 8.00011317,10 L11.3334465,10 C11.4161132,10 11.4981132,9.9819984 11.5761132,9.95066507 C11.6087798,9.9379984 11.6341132,9.91666507 11.6641132,9.8999984 C11.6987798,9.87933173 11.7361132,9.86666507 11.7667798,9.83933173 C11.7734465,9.8339984 11.7761132,9.8259984 11.7821132,9.8199984 C11.8187798,9.78666507 11.8441132,9.7459984 11.8721132,9.70533173 C11.8941132,9.67333173 11.9201132,9.64533173 11.9354465,9.61066507 C11.9521132,9.57533173 11.9574465,9.5359984 11.9667798,9.4979984 C11.9794465,9.45133173 11.9934465,9.4059984 11.9947798,9.3579984 C11.9954465,9.34933173 12.0001132,9.3419984 12.0001132,9.33333173 L12.0001132,6 Z" id="icon-/-uptrend" transform="translate(6.000057, 5.999999) scale(1, -1) translate(-6.000057, -5.999999) "></path>
                    </g>
                </g>
            </g>
        </g>
    </g>
</svg>
